X: 79
T: The Road To Boston v.2
P: piffero secondo a0267
O: mcv
%R: march, song
F: http://ancients.sudburymuster.org/mus/acn/pdf/fyf08F.pdf
Z: 2020 John Chambers <jc:trillian.mit.edu>
M: 2/4
L: 1/16
K: D
z2 |\
d2A2 d2(cd | e2)d2 c2B2 | E2F2  G2AG | F2E2 D2E2 |\
d2A2 d2(cd | e2)d2 c2B2 | E2F2  G2A2 | F4   F2  :|
|: d2 |\
f2d2 d2f2  | g2f2 e2d2  | ece2- e2de | f2e2 d2c2 |\
dAd2- d2cd | e2d2 c2B2  | E2F2  G2A2 | F4   F2  :|


